!!!OTL: 116. Gefunden.
!!!COM: Volksweise
!!!ARE: Europa, Mitteleuropa, Deutschland
!!!SCT: B0116
!!!TXL: @@DE
!!!YEM: Copyright 1995, estate of Helmut Schaffrath.
**kern	**text
*ICvox	*
*Ivox	*
*M3/4	*
*clefG2	*
*k[b-e-]	*
*B-:	*
!LO:TX:a:t=Ruhig.	!
{8f	Jch
8b-	ging
8g	im
=1	=1
8.fL	Wal-
16gJ	.
8f	-de
8e-	ſo
8d	für
8f	mich
=2	=2
4b-	hin,
8r}	.
{8f	Jch
8b-	ging
8g	im
=3	=3
8.fL	Wal-
16gJ	.
8f	-de
8e-	ſo
8d	für
8f	mich
=4	=4
4b-	hin,
8r}	.
{8b-	und
8a	nichts
8b-	ʒu
=5	=5
8.ccL	ſu-
16ddJ	.
8cc	-chen,
8b-	und
8a	nichts
8g	ʒu
=6	=6
8.fL	ſuchen,
16gJ	.
8f}	.
{8f	das
8b-	war
8cc	mein
=7	=7
(8.ddL	Sinn,
16ee-	.
8ffJ)	.
8dd	das
16ddqq	.
8cc	war
8cc	mein
=8	=8
4.b-}	Sinn.
==	==
!!!AGN: Ballade, Romanze
!!!GTL: Balladen und Romanzen
!!!ONB: ESAC (Essen Associative Code) Database: BOEHME
!!!AMT: simple triple
!!!AIN: vox
!!!EED: Helmut Schaffrath
!!!EEV: 1.0
!!@@COMMENT:"Wolfg. v. Goethe. 1813. Ʒur poet. Jdee vergleiche das ſteir. Volkslied: 's Blümerl am
!!See, Liederh. J, 549. Die von Erk angepaßte Volksweiſe aus dem Odenwald: "Glück auf, Glück auf!
!!der Steiger kommt (1838), iſt ſchön und paßt ʒu Goethe's Text beſſer als alle nüchternen Kompositionen von Zelter, Gersbach..."
!!@@END:
!!Text: J. W. v. Goethe
!!!URL-scan: https://archive.org/details/BoehmeVtLieder1895/page/n123/mode/2up
!!!ENC: Anna Maria Matuszewska
!!!EEV: 2024/18/06
*-	*-
